X:1
T:Bone Iesu
T:Mathieu Gascongne
T:Source : Liber motettorum XI---Paris---P.Attaignant---1534. Editor : André Vierendeels (28/08/17)
T:Bone Iesu
T:©
T:©
T:©
C:Mathieu Gascongne
Z:©
%%score [ 1 2 3 4 ]
L:1/8
Q:1/4=120
M:2/2
K:C
V:1 treble nm="Soprano" snm="S"
V:2 treble-8 nm="Tenor 1" snm="T 1"
V:3 treble-8 nm="Tenor 2" snm="T 2"
V:4 bass nm="Bass" snm="B"
V:1
 E8 | E4 E4 | E8 | A8 | G4 F4 | !fermata!E8 || G8 | B4 B4 | c4 A4 | G3 A Bc d2- | d2 cB A4 | %11
w: Bo-|ne Ie-|su,|dul-|cis- si-|me.|O|Ie- su|cle- men-|tis- * * * *|* * * si-|
 !fermata!G8 || G8 | G4 G4 | G8 | z4 E4 | E8 | D8 | z4 G4- | G4 G4 | A8 | !fermata!B8 || G8 | F8 | %24
w: me.|Re-|gem no-|strum|et|re-|gnum|tu|_ con-|ser-|va.|Sal-|va,|
 z4 G4 | G8 | A8 | D8 | E4 F4- | F2 E2 E4- | E4 D4 | E4 E4 | A8 |"^#" G8 |] %34
w: de-|fen-||de|et gu-|* * ber-|* na,|et gu-|ber-|na.|
V:2
 B8 | B4 B4 | c8 | c8 | c4 A4 | !fermata!c8 || e8 | g4 g4 | e8 | e4 d4- | d4 d4 | !fermata!e8 || %12
w: Bo-|ne Ie-|su,|dul-|cis- si-|me.|O|Ie- si|cle-|men- tis-|* si-|me.|
 d8 | e4 e4 | d8 | z4 c4 | c8 | B8 | z4 d4- | d4 e4 | e6 f2 | !fermata!g8 || e8 | d8 | z4 d4 | e8 | %26
w: Re-|gem no-|strum|et|re-|gnum|tu|_ con-|ser- *|va.|Sal-|va,|de|fen-|
 E6 F2 | G6 AB | c4 d4 | B4 c4 | A8- | A4 B4 | c8 | B8 |] %34
w: ||de, et|gu- *|ber-|||na.|
V:3
 E8 | G4 G4 | A8 | E8 | E4 F4 | !fermata!G8 || c8 | d4 d4 | c8 | B4 B4 | A8 | !fermata!B8 || B8 | %13
w: Bo-|ne Ie-|su,|dul-|cis- si|me.|O|Ie- su|cle-|men- tis-|si-|me.|Re-|
 B4 c4 | B8 | z4 G4 | G8 | G8 | z4 B4- | B4 B4 | c8 | !fermata!d8 || c8 | A8 | z4 B4 | c8 | c8 | %27
w: gem no-|strum|et|re-|gnum|tu|_ con-|ser-|va.|Sal-|va,|de-|fen-|de,|
 B8 | A8 | G8 | E4 F4 | E8 | E8- | E8 |] %34
w: et|gu-|ber-|||na.|_|
V:4
 E,8 | E,4 E,4 | A,,8 | A,,8 | C,4 D,4 | !fermata!C,8 || C,8 | G,4 G,4 | A,8 | E,4 G,4 | F,8 | %11
w: Bo-|ne Ie-|su,|dul-|cis- si-|me.|O|Ie- su|cle-|men- tis-|si-|
 !fermata!E,8 || G,8 | E,4 C,4 | G,8 | z4 C,4 | C,8 | G,,8 | z4 G,4- | G,4 E,4 | A,8 | %21
w: me.|Re-|gem no-|strum|et|re-|gnum|tu|_ con|ser-|
 !fermata!G,8 || C,8 | D,8 | z4 G,,4 | C,8 | A,,8 | G,,8 | z4 D,4 | E,4 C,4 | C,4 D,4 | A,,4 G,,4 | %32
w: va.|Sal-|va,|de-|fen-||de,|gu-|ber- *|||
 A,,8 | E,8 |] %34
w: |na.|

